!!!OTL: I Had a Horse 
!!!id: HA017
**kern
*clefF4
*k[f#]
*D:
*M3/4
{8A
=1
16d
8.d
4d
8.dd
16b
=2
8a
8f#
4.e}
{8f#
=3
16d
8.d
4.d
8e
=4
8f#
4B}
8r
{8A
8B
=5
8d
8d
4d
8.dd
16b
=6
8.a
16f#
4.e}
{16f#
16f#
=7
8d
8d
4.d
8e
=8
8f#
4.B}
8r
{8d
=9
8g
8g
4.g
8g
=10
8f#
8f#
4.f#}
{8d
=11
16e
8.e
4.e
8f#
=12
8f#
4.b}
8r
{8dd
=13
8.a
16b
4dd
16dd
16ee
8ff#
=14
8ee
8dd
4.b}
{8dd
=15
16a
16f#
16e
16d
4.d
8e
=16
8f#
2B}
==
*-
!!!minrhy: 16
!!!meter: 3/4 
!!!cut: I Had a Horse 
!!!key: HA017  16  d 3/4 
!!!bem1: beginnt in D-Dur, Zwischenteil in G-Dur, endet in h-moll;
!!!bem2: Haupttonart: D-Dur, aw und aw": gleicher Schluss
!!!bem3: Anfangsmotiv a und c rhythmisch gleich
!!!fog: a--aw-av-aw-b--c--d--aw"
!! Haydn: Volksliedbearbeitungen, Bd1
